X: 1839
T: Rita Croker's Set Tune
B: australian traditional tunes wiki
M:4/4
L:1/8
R: Step Dance
Q: 1/4=100
K:D
V:1 
|:"D"D2FAd2A2|"G"cBGB "D"A3A|"A7"ABcde3f|edcBA4|"D"D2FAd2A2|"G"cBGB"D"A3A|FAFD "A7"EDCE|"D"D2FAd4:|
|:"D"DEFA"A7"G2E2|"D"DEFA "A7"G2FE|"D"DEFA"A7"G2E2|CDECA,4|"D"DEFA"A7"G2E2|"D"DEFA "A7"G2FE|"D"FAFD "A7"EDCE|"D"D2FAd4:|
% abcbook-tune_id 6342d53a59b5029d8ae30881


% abcbook-boost 0
% abcbook-tablature 
% abcbook-transpose 
% abcbook-lastupdated 1665324387097
% abcbook-soundfonts 
% abcbook-repeats 1
% NFF Book 2015

